src/img/int-3.svg

<svg width="46" height="46" viewBox="0 0 46 46" fill="none" xmlns="http://www.w3.org/2000/svg">
<path d="M26.59 0.477699C26.1806 0.413984 25.7973 0.69465 25.7337 1.10425C25.6702 1.51384 25.9504 1.89764 26.3597 1.96126C36.644 3.5607 44.1085 12.2954 44.1085 22.7304C44.1085 34.3206 34.6879 43.7498 23.1085 43.7498C11.529 43.7498 2.10846 34.3206 2.10846 22.7304C2.10846 11.646 10.7559 2.43082 21.795 1.75125C22.2085 1.72582 22.523 1.36971 22.4976 0.955891C22.4722 0.542071 22.1165 0.227061 21.703 0.252679C9.87424 0.980852 0.608459 10.8543 0.608459 22.7304C0.608459 35.1769 10.6717 45.2512 23.1085 45.2512C35.6169 45.2512 45.6085 35.0971 45.6085 22.7304C45.6085 11.5296 37.4084 2.16019 26.59 0.477699Z" fill="url(#paint0_linear)"/>
<path d="M22.8512 40.0871C22.4382 40.0788 22.0961 40.4117 22.0898 40.8262C22.0836 41.2407 22.4141 41.582 22.8283 41.5883C23.1973 41.5939 23.5572 41.5885 23.9014 41.5744C24.3153 41.5573 24.6369 41.2077 24.6199 40.7934C24.6028 40.3791 24.2519 40.0563 23.8396 40.0742C23.5128 40.0877 23.1816 40.092 22.8512 40.0871Z" fill="url(#paint1_linear)"/>
<path d="M15.3246 38.2473C14.9545 38.061 14.5038 38.2102 14.3176 38.5806C14.1315 38.951 14.2805 39.4023 14.6506 39.5886C14.9685 39.7487 15.2953 39.9016 15.6217 40.0432C16.004 40.2087 16.4443 40.031 16.6081 39.6526C16.7727 39.2722 16.598 38.8302 16.2179 38.6654C15.9176 38.5351 15.6171 38.3946 15.3246 38.2473Z" fill="url(#paint2_linear)"/>
<path d="M14.7491 7.41481C15.0374 7.41481 15.0507 7.31873 15.9851 6.89665C16.3626 6.72615 16.5306 6.28155 16.3603 5.90367C16.1899 5.52579 15.7458 5.35754 15.3682 5.52814C15.0433 5.6748 14.718 5.83311 14.4014 5.99854C14.0341 6.19034 13.8918 6.64385 14.0835 7.01141C14.2174 7.26796 14.4786 7.41481 14.7491 7.41481Z" fill="url(#paint3_linear)"/>
<path d="M21.8238 4.64749C21.8358 5.06628 22.1865 5.38927 22.5949 5.37641C22.9218 5.36703 23.2525 5.36675 23.5839 5.37594C23.9992 5.38758 24.3428 5.06056 24.3542 4.64608C24.3655 4.23161 24.0391 3.88647 23.625 3.87512C23.2658 3.86527 22.9069 3.86545 22.5521 3.87568C22.138 3.88751 21.812 4.23301 21.8238 4.64749Z" fill="url(#paint4_linear)"/>
<path d="M31.314 38.0267C31.0244 38.1827 30.7269 38.332 30.4298 38.4707C30.0544 38.646 29.8922 39.0927 30.0672 39.4684C30.2426 39.8447 30.689 40.0064 31.0639 39.8314C31.3867 39.6807 31.71 39.5183 32.0246 39.3489C32.3894 39.1525 32.526 38.6972 32.3297 38.3321C32.1335 37.967 31.6787 37.8304 31.314 38.0267Z" fill="url(#paint5_linear)"/>
<path d="M30.6972 7.11445C31.069 7.29584 31.5183 7.14167 31.7 6.76838C31.8815 6.39566 31.7267 5.94628 31.3543 5.76471C31.0344 5.60866 30.7058 5.45983 30.3775 5.32255C29.9954 5.16265 29.556 5.343 29.3963 5.72548C29.2364 6.10796 29.4167 6.54768 29.7988 6.70767C30.1007 6.83398 30.403 6.97088 30.6972 7.11445Z" fill="url(#paint6_linear)"/>
<path d="M40.1841 25.7844C40.1267 26.1079 40.0593 26.4336 39.9837 26.7527C39.8882 27.1561 40.1375 27.5606 40.5405 27.6562C40.9465 27.7526 41.3484 27.4994 41.4432 27.0989C41.5253 26.7523 41.5986 26.3983 41.6609 26.0468C41.7333 25.6386 41.4614 25.249 41.0535 25.1764C40.6455 25.1039 40.2565 25.3762 40.1841 25.7844Z" fill="url(#paint7_linear)"/>
<path d="M37.2207 10.2302C36.9461 9.9197 36.4723 9.89079 36.162 10.1655C35.8517 10.4403 35.8229 10.9147 36.0974 11.2252C36.3152 11.4716 36.5285 11.7271 36.7315 11.9846C36.8795 12.1723 37.0991 12.2703 37.3208 12.2703C37.9387 12.2703 38.2999 11.5504 37.9091 11.0546C37.6887 10.775 37.4571 10.4976 37.2207 10.2302Z" fill="url(#paint8_linear)"/>
<path d="M37.1509 32.9208C36.9585 33.1858 36.7557 33.4492 36.5479 33.7036C36.2858 34.0247 36.3333 34.4976 36.6542 34.76C36.977 35.024 37.4491 34.9727 37.7095 34.6536C37.9352 34.3772 38.1555 34.0911 38.3645 33.8031C38.608 33.4676 38.5337 32.9982 38.1985 32.7546C37.8633 32.5109 37.3943 32.5854 37.1509 32.9208Z" fill="url(#paint9_linear)"/>
<path d="M41.2553 17.629C41.1435 17.2299 40.7296 16.997 40.3306 17.109C39.9318 17.221 39.6991 17.6353 39.8111 18.0345C39.8996 18.3506 39.9801 18.6733 40.0504 18.9937C40.1273 19.3445 40.4376 19.5837 40.7822 19.5837C41.2603 19.5837 41.6186 19.1417 41.5155 18.6719C41.4391 18.3234 41.3516 17.9727 41.2553 17.629Z" fill="url(#paint10_linear)"/>
<path d="M8.84075 35.0499C9.11094 35.3633 9.58466 35.3989 9.89853 35.1276C10.2121 34.8567 10.2468 34.3827 9.97616 34.0689C9.76166 33.8201 9.55157 33.5621 9.3516 33.3019C9.09913 32.9731 8.62822 32.9115 8.29991 33.1643C7.9715 33.417 7.91 33.8882 8.16247 34.2169C8.3796 34.4996 8.60779 34.7799 8.84075 35.0499Z" fill="url(#paint11_linear)"/>
<path d="M5.33631 20.07C5.68928 20.07 6.00381 19.8195 6.07225 19.4597C6.13365 19.1368 6.20519 18.8119 6.28469 18.494C6.38528 18.0918 6.14115 17.6842 5.73934 17.5834C5.33753 17.4826 4.93028 17.7271 4.82959 18.1293C4.74315 18.4748 4.66543 18.8278 4.59868 19.1788C4.51075 19.6412 4.86493 20.07 5.33631 20.07Z" fill="url(#paint12_linear)"/>
<path d="M4.89918 27.6009C5.00568 28.0001 5.41537 28.2397 5.81718 28.1327C6.2174 28.0257 6.45524 27.6143 6.34846 27.2138C6.26399 26.8971 6.18759 26.5735 6.1213 26.2517C6.03768 25.8456 5.64112 25.5842 5.23527 25.6681C4.82962 25.7518 4.56852 26.1489 4.65224 26.555C4.72424 26.9046 4.8074 27.2566 4.89918 27.6009Z" fill="url(#paint13_linear)"/>
<path d="M8.59325 12.6639C8.82191 12.6639 9.04775 12.5596 9.19503 12.3621C9.39116 12.099 9.59731 11.838 9.80788 11.5866C10.0739 11.2689 10.0323 10.7954 9.71488 10.529C9.39725 10.2626 8.92428 10.3043 8.65822 10.6221C8.42956 10.8951 8.2056 11.1785 7.9926 11.4643C7.62088 11.9633 7.98519 12.6639 8.59325 12.6639Z" fill="url(#paint14_linear)"/>
<path d="M14.41 12.1969L11.5975 16.7011C11.378 17.0527 11.4847 17.5159 11.836 17.7356C12.1872 17.9552 12.6499 17.8484 12.8695 17.4968L15.4617 13.3455H32.6303L30.7553 16.3483H16.6216C16.2074 16.3483 15.8716 16.6844 15.8716 17.099C15.8716 17.5135 16.2074 17.8497 16.6216 17.8497H31.171C31.4295 17.8497 31.6699 17.7163 31.807 17.4968L34.6195 12.9927C34.931 12.4936 34.572 11.8441 33.9835 11.8441H15.046C14.7874 11.8441 14.547 11.9775 14.41 12.1969Z" fill="url(#paint15_linear)"/>
<path d="M34.6194 24.5834L31.8069 20.0792C31.5873 19.7277 31.1248 19.6208 30.7734 19.8405C30.4221 20.0603 30.3154 20.5233 30.5349 20.8749L32.6302 24.2305H15.4616L13.5866 21.2278H26.928C27.3422 21.2278 27.678 20.8916 27.678 20.4771C27.678 20.0625 27.3422 19.7264 26.928 19.7264H12.2334C11.6455 19.7264 11.2855 20.3754 11.5974 20.8749L14.4099 25.3791C14.547 25.5986 14.7873 25.7319 15.0459 25.7319H33.9834C34.5713 25.7319 34.9313 25.083 34.6194 24.5834Z" fill="url(#paint16_linear)"/>
<path d="M33.9835 27.6087H15.046C14.7874 27.6087 14.547 27.742 14.41 27.9615L11.5975 32.4656C11.286 32.9648 11.6449 33.6142 12.2335 33.6142H27.1216C27.5358 33.6142 27.8716 33.2781 27.8716 32.8635C27.8716 32.4489 27.5358 32.1128 27.1216 32.1128H13.5867L15.4617 29.1101H32.6303L30.535 32.4656C30.3155 32.8173 30.4222 33.2804 30.7735 33.5001C31.1248 33.7198 31.5874 33.613 31.807 33.2614L34.6195 28.7572C34.931 28.2582 34.572 27.6087 33.9835 27.6087Z" fill="url(#paint17_linear)"/>
<defs>
<linearGradient id="paint0_linear" x1="23.1085" y1="0.251221" x2="23.1085" y2="45.2512" gradientUnits="userSpaceOnUse">
<stop stop-color="#18C7EE"/>
<stop offset="1" stop-color="#8843FB"/>
</linearGradient>
<linearGradient id="paint1_linear" x1="23.1085" y1="0.251221" x2="23.1085" y2="45.2512" gradientUnits="userSpaceOnUse">
<stop stop-color="#18C7EE"/>
<stop offset="1" stop-color="#8843FB"/>
</linearGradient>
<linearGradient id="paint2_linear" x1="23.1085" y1="0.251221" x2="23.1085" y2="45.2512" gradientUnits="userSpaceOnUse">
<stop stop-color="#18C7EE"/>
<stop offset="1" stop-color="#8843FB"/>
</linearGradient>
<linearGradient id="paint3_linear" x1="23.1085" y1="0.251221" x2="23.1085" y2="45.2512" gradientUnits="userSpaceOnUse">
<stop stop-color="#18C7EE"/>
<stop offset="1" stop-color="#8843FB"/>
</linearGradient>
<linearGradient id="paint4_linear" x1="23.1085" y1="0.251221" x2="23.1085" y2="45.2512" gradientUnits="userSpaceOnUse">
<stop stop-color="#18C7EE"/>
<stop offset="1" stop-color="#8843FB"/>
</linearGradient>
<linearGradient id="paint5_linear" x1="23.1085" y1="0.251221" x2="23.1085" y2="45.2512" gradientUnits="userSpaceOnUse">
<stop stop-color="#18C7EE"/>
<stop offset="1" stop-color="#8843FB"/>
</linearGradient>
<linearGradient id="paint6_linear" x1="23.1085" y1="0.251221" x2="23.1085" y2="45.2512" gradientUnits="userSpaceOnUse">
<stop stop-color="#18C7EE"/>
<stop offset="1" stop-color="#8843FB"/>
</linearGradient>
<linearGradient id="paint7_linear" x1="23.1085" y1="0.251221" x2="23.1085" y2="45.2512" gradientUnits="userSpaceOnUse">
<stop stop-color="#18C7EE"/>
<stop offset="1" stop-color="#8843FB"/>
</linearGradient>
<linearGradient id="paint8_linear" x1="23.1085" y1="0.251221" x2="23.1085" y2="45.2512" gradientUnits="userSpaceOnUse">
<stop stop-color="#18C7EE"/>
<stop offset="1" stop-color="#8843FB"/>
</linearGradient>
<linearGradient id="paint9_linear" x1="23.1085" y1="0.251221" x2="23.1085" y2="45.2512" gradientUnits="userSpaceOnUse">
<stop stop-color="#18C7EE"/>
<stop offset="1" stop-color="#8843FB"/>
</linearGradient>
<linearGradient id="paint10_linear" x1="23.1085" y1="0.251221" x2="23.1085" y2="45.2512" gradientUnits="userSpaceOnUse">
<stop stop-color="#18C7EE"/>
<stop offset="1" stop-color="#8843FB"/>
</linearGradient>
<linearGradient id="paint11_linear" x1="23.1085" y1="0.251221" x2="23.1085" y2="45.2512" gradientUnits="userSpaceOnUse">
<stop stop-color="#18C7EE"/>
<stop offset="1" stop-color="#8843FB"/>
</linearGradient>
<linearGradient id="paint12_linear" x1="23.1085" y1="0.251221" x2="23.1085" y2="45.2512" gradientUnits="userSpaceOnUse">
<stop stop-color="#18C7EE"/>
<stop offset="1" stop-color="#8843FB"/>
</linearGradient>
<linearGradient id="paint13_linear" x1="23.1085" y1="0.251221" x2="23.1085" y2="45.2512" gradientUnits="userSpaceOnUse">
<stop stop-color="#18C7EE"/>
<stop offset="1" stop-color="#8843FB"/>
</linearGradient>
<linearGradient id="paint14_linear" x1="23.1085" y1="0.251221" x2="23.1085" y2="45.2512" gradientUnits="userSpaceOnUse">
<stop stop-color="#18C7EE"/>
<stop offset="1" stop-color="#8843FB"/>
</linearGradient>
<linearGradient id="paint15_linear" x1="23.1085" y1="0.251221" x2="23.1085" y2="45.2512" gradientUnits="userSpaceOnUse">
<stop stop-color="#18C7EE"/>
<stop offset="1" stop-color="#8843FB"/>
</linearGradient>
<linearGradient id="paint16_linear" x1="23.1085" y1="0.251221" x2="23.1085" y2="45.2512" gradientUnits="userSpaceOnUse">
<stop stop-color="#18C7EE"/>
<stop offset="1" stop-color="#8843FB"/>
</linearGradient>
<linearGradient id="paint17_linear" x1="23.1085" y1="0.251221" x2="23.1085" y2="45.2512" gradientUnits="userSpaceOnUse">
<stop stop-color="#18C7EE"/>
<stop offset="1" stop-color="#8843FB"/>
</linearGradient>
</defs>
</svg>

<svg width="46" height="46" fill="none" xmlns="http://www.w3.org/2000/svg"><path d="M26.59.478a.75.75 0 0 0-.23 1.483c10.284 1.6 17.748 10.334 17.748 20.77 0 11.59-9.42 21.019-21 21.019-11.579 0-21-9.43-21-21.02 0-11.084 8.648-20.3 19.687-20.979a.75.75 0 0 0-.092-1.498C9.874.98.608 10.854.608 22.73c0 12.447 10.064 22.521 22.5 22.521 12.509 0 22.5-10.154 22.5-22.52 0-11.201-8.2-20.57-19.018-22.253Z" fill="url(#a)"/><path d="M22.851 40.087a.75.75 0 1 0-.023 1.501c.37.006.73 0 1.073-.014a.75.75 0 0 0-.061-1.5 17.66 17.66 0 0 1-.989.013Z" fill="url(#b)"/><path d="M15.325 38.247a.75.75 0 1 0-.674 1.342c.318.16.644.313.97.454a.75.75 0 1 0 .597-1.378c-.3-.13-.6-.27-.893-.418Z" fill="url(#c)"/><path d="M14.75 7.415c.287 0 .3-.096 1.235-.518a.751.751 0 0 0-.617-1.369c-.325.147-.65.305-.967.47a.75.75 0 0 0 .348 1.417Z" fill="url(#d)"/><path d="M21.824 4.647a.75.75 0 0 0 .77.73c.328-.01.659-.01.99-.001a.75.75 0 0 0 .041-1.5c-.36-.01-.718-.01-1.073 0a.75.75 0 0 0-.728.771Z" fill="url(#e)"/><path d="M31.314 38.027c-.29.156-.587.305-.884.444a.751.751 0 0 0 .634 1.36c.323-.15.646-.313.96-.482a.751.751 0 0 0-.71-1.322Z" fill="url(#f)"/><path d="M30.697 7.114a.75.75 0 1 0 .657-1.35 18.64 18.64 0 0 0-.976-.441.75.75 0 1 0-.58 1.385c.303.126.605.263.9.406Z" fill="url(#g)"/><path d="M40.184 25.784c-.057.324-.125.65-.2.969a.75.75 0 0 0 1.46.346c.081-.347.155-.7.217-1.052a.75.75 0 0 0-1.477-.263Z" fill="url(#h)"/><path d="M37.22 10.23a.75.75 0 1 0-1.123.995c.218.247.431.502.634.76a.749.749 0 0 0 .59.285c.618 0 .979-.72.588-1.215-.22-.28-.452-.557-.688-.825Z" fill="url(#i)"/><path d="M37.15 32.92c-.191.266-.394.53-.602.784a.751.751 0 0 0 1.161.95c.226-.277.447-.563.655-.85a.75.75 0 0 0-1.213-.883Z" fill="url(#j)"/><path d="M41.255 17.629a.75.75 0 1 0-1.444.405c.089.317.17.64.24.96a.75.75 0 1 0 1.465-.322 19.37 19.37 0 0 0-.26-1.043Z" fill="url(#k)"/><path d="M8.84 35.05a.75.75 0 1 0 1.136-.981 17.665 17.665 0 0 1-.624-.767.75.75 0 1 0-1.19.915c.218.283.446.563.679.833Z" fill="url(#l)"/><path d="M5.336 20.07a.75.75 0 0 0 .736-.61c.062-.323.133-.648.213-.966a.75.75 0 0 0-1.455-.365c-.087.346-.165.699-.231 1.05a.75.75 0 0 0 .737.891Z" fill="url(#m)"/><path d="M4.9 27.6a.75.75 0 1 0 1.448-.386 17.27 17.27 0 0 1-.227-.962.75.75 0 1 0-1.469.303c.072.35.155.702.247 1.046Z" fill="url(#n)"/><path d="M8.593 12.664a.749.749 0 0 0 .602-.302c.196-.263.402-.524.613-.775a.751.751 0 0 0-1.15-.965c-.228.273-.452.556-.665.842a.752.752 0 0 0 .6 1.2Z" fill="url(#o)"/><path d="M14.41 12.197 11.597 16.7a.751.751 0 0 0 1.273.796l2.592-4.152H32.63l-1.875 3.003H16.622a.75.75 0 0 0 0 1.502H31.17a.75.75 0 0 0 .636-.353l2.813-4.504a.751.751 0 0 0-.636-1.149H15.046a.75.75 0 0 0-.636.353Z" fill="url(#p)"/><path d="m34.62 24.583-2.813-4.504a.75.75 0 1 0-1.272.796l2.095 3.355H15.462l-1.875-3.002h13.341a.75.75 0 0 0 0-1.502H12.233a.751.751 0 0 0-.636 1.149l2.813 4.504a.75.75 0 0 0 .636.353h18.937a.751.751 0 0 0 .636-1.149Z" fill="url(#q)"/><path d="M33.983 27.609H15.046a.75.75 0 0 0-.636.352l-2.813 4.505a.751.751 0 0 0 .636 1.148h14.889a.75.75 0 0 0 0-1.501H13.587l1.875-3.003H32.63l-2.095 3.356a.751.751 0 0 0 1.272.795l2.813-4.504a.751.751 0 0 0-.636-1.148Z" fill="url(#r)"/><defs><linearGradient id="a" x1="23.108" y1=".251" x2="23.108" y2="45.251" gradientUnits="userSpaceOnUse"><stop stop-color="#18C7EE"/><stop offset="1" stop-color="#8843FB"/></linearGradient><linearGradient id="b" x1="23.108" y1=".251" x2="23.108" y2="45.251" gradientUnits="userSpaceOnUse"><stop stop-color="#18C7EE"/><stop offset="1" stop-color="#8843FB"/></linearGradient><linearGradient id="c" x1="23.108" y1=".251" x2="23.108" y2="45.251" gradientUnits="userSpaceOnUse"><stop stop-color="#18C7EE"/><stop offset="1" stop-color="#8843FB"/></linearGradient><linearGradient id="d" x1="23.108" y1=".251" x2="23.108" y2="45.251" gradientUnits="userSpaceOnUse"><stop stop-color="#18C7EE"/><stop offset="1" stop-color="#8843FB"/></linearGradient><linearGradient id="e" x1="23.108" y1=".251" x2="23.108" y2="45.251" gradientUnits="userSpaceOnUse"><stop stop-color="#18C7EE"/><stop offset="1" stop-color="#8843FB"/></linearGradient><linearGradient id="f" x1="23.108" y1=".251" x2="23.108" y2="45.251" gradientUnits="userSpaceOnUse"><stop stop-color="#18C7EE"/><stop offset="1" stop-color="#8843FB"/></linearGradient><linearGradient id="g" x1="23.108" y1=".251" x2="23.108" y2="45.251" gradientUnits="userSpaceOnUse"><stop stop-color="#18C7EE"/><stop offset="1" stop-color="#8843FB"/></linearGradient><linearGradient id="h" x1="23.108" y1=".251" x2="23.108" y2="45.251" gradientUnits="userSpaceOnUse"><stop stop-color="#18C7EE"/><stop offset="1" stop-color="#8843FB"/></linearGradient><linearGradient id="i" x1="23.108" y1=".251" x2="23.108" y2="45.251" gradientUnits="userSpaceOnUse"><stop stop-color="#18C7EE"/><stop offset="1" stop-color="#8843FB"/></linearGradient><linearGradient id="j" x1="23.108" y1=".251" x2="23.108" y2="45.251" gradientUnits="userSpaceOnUse"><stop stop-color="#18C7EE"/><stop offset="1" stop-color="#8843FB"/></linearGradient><linearGradient id="k" x1="23.108" y1=".251" x2="23.108" y2="45.251" gradientUnits="userSpaceOnUse"><stop stop-color="#18C7EE"/><stop offset="1" stop-color="#8843FB"/></linearGradient><linearGradient id="l" x1="23.108" y1=".251" x2="23.108" y2="45.251" gradientUnits="userSpaceOnUse"><stop stop-color="#18C7EE"/><stop offset="1" stop-color="#8843FB"/></linearGradient><linearGradient id="m" x1="23.108" y1=".251" x2="23.108" y2="45.251" gradientUnits="userSpaceOnUse"><stop stop-color="#18C7EE"/><stop offset="1" stop-color="#8843FB"/></linearGradient><linearGradient id="n" x1="23.108" y1=".251" x2="23.108" y2="45.251" gradientUnits="userSpaceOnUse"><stop stop-color="#18C7EE"/><stop offset="1" stop-color="#8843FB"/></linearGradient><linearGradient id="o" x1="23.108" y1=".251" x2="23.108" y2="45.251" gradientUnits="userSpaceOnUse"><stop stop-color="#18C7EE"/><stop offset="1" stop-color="#8843FB"/></linearGradient><linearGradient id="p" x1="23.108" y1=".251" x2="23.108" y2="45.251" gradientUnits="userSpaceOnUse"><stop stop-color="#18C7EE"/><stop offset="1" stop-color="#8843FB"/></linearGradient><linearGradient id="q" x1="23.108" y1=".251" x2="23.108" y2="45.251" gradientUnits="userSpaceOnUse"><stop stop-color="#18C7EE"/><stop offset="1" stop-color="#8843FB"/></linearGradient><linearGradient id="r" x1="23.108" y1=".251" x2="23.108" y2="45.251" gradientUnits="userSpaceOnUse"><stop stop-color="#18C7EE"/><stop offset="1" stop-color="#8843FB"/></linearGradient></defs></svg>
